X: 10551
M: 6/8
L: 1/8
K: D
V: 1 staves=3
  A |\
|: (f/g/) |\
afg afa | gbg bag | fga agf | eee efg |\
a3  f3  | ede fdB | AFA faf | ddd d2 :|
V: 2
  F |\
|: (d/e/) |\
fde fdf | gBg gdB | def fed | ccc cde |\
f3  d3  | cBc dFG | FDF FAF | DDD D2 :|
V: 3 clef=bass middle=d
  d |\
d2d d2d | A2A d2d | d2d d2f | a2a a2z |\
d2d d2d | A2A d2d | d2d faf | d2d d2 :|
|: d |\
d2d d2d | d2d d2d | d2d d2d | aaa a/g/fe |\
d3  d3  | a2a d2d | d2d faf | ddd d2 :|


